X: 30501
T: SCOTCH FOLLY
C:
%R: hornpipe, reel, strathspey
B: Elias Howe "The Musician's Companion" Part 3 1844 p.50 #1
S: http://imslp.org/wiki/The_Musician's_Companion_(Howe,_Elias)
S: https://archive.org/stream/firstthirdpartof03howe/#page/66/mode/1up
Z: 2015 John Chambers <jc:trillian.mit.edu>
M: 4/4
L: 1/8
K: C
% - - - - - - - - - - - - - - - - - - - - - - - - -
f |\
e>gg>a g>ec>a | g>ca>c e>dd>f |\
e>gg>a g>age | f>d B<g ecc :: e |\
G>BD>c d>cd>e | c<ce<d c<AA<c |
G<cE>c d>cde | c>G A/B/c E<CC<c |\
G>cE>c d>cd>e | c<ce>d c>AA>c |\
GBEc FdEc | A<ag<f ecc :|
% - - - - - - - - - - - - - - - - - - - - - - - - -
